X:1
T:Helsingborg, 98.98 D
T:Helsingborg, 98.98 D
T:Barney Elliott Warren, 1893
T:Public Domain Courtesy of the Cyber Hymnal™
C:Barney Elliott Warren, 1893
Z:Public Domain
Z:Courtesy of the Cyber Hymnal™
%%score ( 1 2 ) ( 3 4 )
L:1/8
Q:1/4=106
M:4/4
K:G
V:1 treble 
V:2 treble 
V:3 bass 
V:4 bass 
V:1
 ([DB]>[Dc]) | [Gd]2 [GB]>[DA] [DG]2 [DB]>[DG] | [B,D]4 [DG]2 [GB]2 | %3
 [FA]2 [FA]>[GB] [Ac]2 [FA]>[Fd] | [GB]6 (B>c) | [Gd]2 [GB]>[DA] [EG]2 [CE]>[CE] | %6
 [B,D]4 [DG]2 [GB]2 | [FA]2 [FA]>[FA] [GB]2 [G^c]>[Gc] | [Fd]6 [Fc]2 | [GB]2 [Gd]>[GB] [DG]2 D>D | %10
 [CE]4 [EG]2 [Gc]2 | [GB]2 [GB]>[GB] (B>A) G>[GB] | [FA]6 D2 | [DG]2 [DG]>[DA] [GB]2 [Gd]>[GB] | %14
 [EG]4 [CE]2 [EG]2 | [DG]2 [Gd]>[Gc] [GB]2 [DA]>[DB] | [DG]6 |] %17
V:2
 x2 | x8 | x8 | x8 | x6 D2 | x8 | x8 | x8 | x8 | x6 D>D | x8 | x4 G2 G3/2 x/ | x6 D2 | x8 | x8 | %15
 x8 | x6 |] %17
V:3
 G,>[G,A,] | [G,B,]2 [G,D]>[G,C] [G,B,]2 [G,,G,]>[G,,G,] | [G,,G,]4 [G,,B,]2 [B,,D]2 | %3
 [D,D]2 [D,D]>[D,D] [D,D]2 [D,D]>[D,D] | [G,D]6 (G,>A,) | %5
 [G,B,]2 [B,,D]>[B,,D] [C,C]2 [C,G,]>[C,G,] | [G,,G,]4 [G,,B,]2 [G,D]2 | %7
 [A,D]2 [A,D]>[A,D] [G,D]2 [E,A,]>[E,A,] | [D,A,]6 [D,D]2 | %9
 [G,D]2 [G,B,]>[G,B,] [G,B,]2 [B,,G,]>[B,,G,] | [C,G,]4 [C,C]2 [C,E]2 | %11
 [G,,D]2 [G,,D]>[G,,D] D2 [B,,D]>[B,,D] | [D,D]6 [F,C]2 | %13
 [G,B,]2 [G,B,]>[G,C] [G,D]2 [G,B,]>[G,B,] | [C,C]4 [C,G,]2 [C,C]2 | %15
 [D,B,]2 [D,B,]>[D,E] [D,D]2 [D,C]>[D,C] | [G,,B,]6 |] %17
V:4
 G,3/2 x/ | x8 | x8 | x8 | x6 G,2 | x8 | x8 | x8 | x8 | x8 | x8 | x4 (G,,>A,,) x2 | x8 | x8 | x8 | %15
 x8 | x6 |] %17

